X: 2
T: The Kerry
R: polka
M: 2/4
L: 1/8
K: Gmaj
|:BD ED|BD ED|G2 A>B|AG ED|BD ED|BD ED|G2 A>B|AG G2:||:Bd B>G|AG ED|G2 A>B|AG ED|Bd B>G|AG ED|G2 A>B|AG G2:|


Tune 39	Setting 29902

